src/images/ethereum-line-logo.svg

<svg height="59.322" viewBox="0 0 37.164 59.322" width="37.164" xmlns="http://www.w3.org/2000/svg"><path d="m40.429 53.986 18.582 25.468 18.582-25.468-18.582 11.104zm17.384 19.764-8.52-11.677 8.49 5.074.031.018zm2.394-6.585.032-.019 8.49-5.074-8.521 11.679zm17.386-15.565-18.582-31.468-18.582 31.468 18.582 11.1zm-17.385-24.733 12.651 21.421-12.651-5.362zm0 18.66 13.382 5.673-13.382 8zm-2.395 13.668-13.381-8 13.381-5.672zm0-16.269-12.65 5.363 12.65-21.42z" fill="#26293b" transform="translate(-40.429 -20.132)"/></svg>

<svg xmlns="http://www.w3.org/2000/svg" width="37.164" height="59.322" viewBox="0 0 37.164 59.322">
  <path id="Path_32" data-name="Path 32" d="M40.429,53.986,59.011,79.454,77.593,53.986,59.011,65.09ZM57.813,73.75l-8.52-11.677,8.49,5.074.031.018Zm2.394-6.585.032-.019,8.49-5.074L60.208,73.751ZM77.593,51.6,59.011,20.132,40.429,51.6,59.011,62.7ZM60.208,26.867,72.859,48.288,60.208,42.926Zm0,18.66L73.59,51.2l-13.382,8ZM57.813,59.195l-13.381-8,13.381-5.672Zm0-16.269-12.65,5.363,12.65-21.42Z" transform="translate(-40.429 -20.132)" fill="#26293b"/>
</svg>
